!!!COM: Music21
!!!OTL: polka_Palatines-Daughter--The
!!!OMV: polka_Palatines-Daughter--The
**kern
*clefG2
*k[f#c#]
*D:
*M2/4
=1
32aaLLL
32ggJJJ
=
16ff#LL
16dd
16ff#
16aaJJ
4ryy
=
16ggLL
16ee
16.ff#
32eeJJk
4ryy
=
16.ddLL
32eeK
16ff#
16eeJJ
4ryy
=
16ddLL
16cc#J
8aJ
4ryy
=
16aLL
16a
32aL
32b
32a
32f#JJJ
4ryy
=
16gLL
16g
32aL
32b
32cc#
32aJJJ
4ryy
!!linebreak:original
=
16ddLL
16dd
32cc#L
32dd
32ee
32cc#JJJ
4ryy
=
8ddL
16ddJk
4ryy
16ryy
=||
*M2/4
32aaLLL
32ggJJJ
=
16ff#LL
16dd
16ff#
16aaJJ
4ryy
=
16ggLL
16ee
16.ff#
32eeJJk
4ryy
=
16.ddLL
32eeK
16ff#
16eeJJ
4ryy
=
16ddLL
16cc#J
8aJ
4ryy
!!linebreak:original
=
16aLL
16a
32aL
32b
32a
32f#JJJ
4ryy
=
16gLL
16g
32aL
32b
32cc#
32aJJJ
4ryy
=
16ddLL
16dd
32cc#L
32dd
32ee
32cc#JJJ
4ryy
=
8ddL
16ddJk
4ryy
16ryy
=||
32ddLLL
32cc#JJJ
4..ryy
=
16ddLL
16ee
16ff#
16ggJJ
4ryy
=
16aaLL
16ff#
16gg
32ff#L
32ggJJJ
4ryy
!!linebreak:original
=
16.aaLL
32bbK
16gg
16aaJJ
4ryy
=
16ff#LL
16dd
16ee
32ff#L
32ggJJJ
4ryy
=
16.aaLL
32ff#K
16.gg
32eeJJk
4ryy
=
16ff#LL
16dd
16.ee
32cc#JJk
4ryy
=
16.ddLL
32eeK
16ff#
16eeJJ
4ryy
=
16ddLL
16cc#
16a
32ff#L
32ggJJJ
4ryy
=
16aaLL
16ff#
16gg
16aaJJ
4ryy
!!linebreak:original
=
16ff#LL
16dd
16.ee
32cc#JJk
4ryy
=
16.ddLL
32eeK
16ff#
16eeJJ
4ryy
=
16ddLL
16cc#J
8aJ
4ryy
=
16aLL
16a
32aL
32b
32a
32f#JJJ
4ryy
=
16gLL
16g
32aL
32b
32cc#
32aJJJ
4ryy
=
16ddLL
16dd
32cc#L
32dd
32ee
32cc#JJJ
4ryy
=
8ddL
16ddJk
4ryy
16ryy
=||
*-
